X: 1
T: Rat In The Oven, The
M: 4/4
L: 1/8
R: reel
K: Gmin
|:DGGA d2cA|(3Bcd cA GFDC|DGGA d2cA|dcAF AGGF|
DGGA d2cA|(3Bcd cA GFDC|DGGA d2cA|1 dcAF AGGF:|2 dcAF AGGA||
|:BABc dff2|gagd f2dc|BABc dff2|gfdB cedc|
BABc dff2|gagd f2df|g2fd (3Bcd cd|BGAF DGG2:|
